X:403
T:Captain Campbell of Drum-a Mhuic
C:Joe Buchanan's Scottish Tome - Page 359.0
I:359 0
C:D. Galbraith
R:March
Z:Carl Allison
L:1/8
M:2/4
K:A
e | A/>A/A/>B/ cB/<A/ | c/<e/e/>f/ e/>c/a | A/>A/A/>B/ cB/A/ | BB/>c/ Be |
A/>A/A/>B/ cB/<A/ | c/<e/e/>f/ e/>c/a | A/>c/e/>f/ e/>c/B/<c/ | AA/>B/ A2 :|
c/>d/ | ee/>f/ e/c/a | f/>e/f/>g/ f/>e/f/<a/ | A/>c/e/>f/ e/>c/a/>c/ | B/>A/B/>c/ Bc/>d/ |
ee/>f/ e/<c/a | f/>e/f/>g/ f/>e/f/<a/ | A/>c/e/>f/ e/>c/B/<c/ | AA/>B/ A2 :|
e | A/>A/A/>c/ e/>A/c/<A/ | f/>A/f/<a/ e/>A/c/<A/ | A/>A/A/>c/ e/>A/c/<A/ | BB/>c/ Be  |
A/>A/A/>c/ e/>A/c/<A/ | f/>A/f/<a/ e/>A/c/<A/ | A/>c/e/>f/ e/>c/B/<c/ | AA/>B/ A2 :|
f/g/ | a/>g/a/>e/ f/<a/e/>f/ | c/<e/e/>f/ e/>c/a/>c/ | A/>c/e/>f/ e/>c/a/>c/ | B/>A/B/>c/ Bf/<g/ |
a/>g/a/>e/ f/<a/e/>f/ | c/<e/e/>f/ e/>c/a/>c/ | A/>c/e/>f/ e/>c/B/<c/ | AA/>B/ Af/>g/ |
a/>g/a/>e/ f/<a/e/>f/ | c/<e/e/>f/ e/>c/a/>c/ | A/>c/e/>f/ e/>c/a/>c/ | B/>A/B/>c/ Be/>c/ |
A/>A/A/>B/ c/>B/c/<A/ | c/<e/e/>f/ e/>c/e/<a/ | A/>c/e/>f/ e/>c/B/<c/ |AA/>B/ A2 |
